packages/crayons-icon/icons/password.svg

<?xml version="1.0" encoding="UTF-8"?>
<svg width="16px" height="16px" viewBox="0 0 16 16" version="1.1" xmlns="http://www.w3.org/2000/svg" xmlns:xlink="http://www.w3.org/1999/xlink">
    <!-- Generator: Sketch 52.6 (67491) - http://www.bohemiancoding.com/sketch -->
    <title>icon/password</title>
    <desc>Created with Sketch.</desc>
    <g id="Icons-✅" stroke="none" stroke-width="1" fill="none" fill-rule="evenodd">
        <g id="Icons" transform="translate(-244.000000, -1464.000000)" fill="currentColor">
            <g id="icon/password" transform="translate(244.000000, 1464.000000)">
                <g id="password">
                    <path d="M15,2.72 L14,1.58 C12.4486745,-0.269363988 9.69879562,-0.527861519 7.83,1 C6.92580654,1.74797637 6.36303831,2.83022295 6.27,4 C6.15917179,5.16388846 6.51934689,6.32365232 7.27,7.22 L0.27,13.09 C-0.0258037404,13.3439857 -0.0657001329,13.787279 0.18,14.09 C0.315532356,14.2472975 0.512372797,14.3384274 0.72,14.34 C0.883427436,14.3371274 1.04144247,14.2809442 1.17,14.18 L1.37,14 L2.82,15.74 C2.95160633,15.8968298 3.14527456,15.9881827 3.35,15.99 C3.51426385,15.9919351 3.67382896,15.9352009 3.8,15.83 C3.94690909,15.7108838 4.0393657,15.5373895 4.05631907,15.3490187 C4.07327244,15.160648 4.01327964,14.9734332 3.89,14.83 L2.44,13.12 L3.64,12.12 L4.46,13.12 C4.59192024,13.2832378 4.79012439,13.3786695 5,13.38 C5.16505372,13.3765994 5.32392556,13.3165811 5.45,13.21 C5.59545232,13.0894392 5.68599787,12.9152048 5.70106345,12.7268851 C5.71612902,12.5385654 5.65443532,12.3521518 5.53,12.21 L4.72,11.21 L8.19,8.31 C9.74967908,10.1724515 12.5218429,10.4228405 14.39,8.87 C16.2359833,7.32912762 16.5073243,4.59347688 15,2.72 Z M13.52,7.84 C12.9090111,8.35133738 12.1197152,8.59863212 11.3261841,8.52734564 C10.532653,8.45605916 9.80007017,8.07204717 9.29,7.46 L8.82,6.89 L8.34,6.32 C7.83226958,5.70885064 7.58771626,4.92124508 7.66,4.13 C7.73478557,3.34704684 8.12016905,2.62670388 8.73,2.13 C9.26835301,1.67915304 9.94779997,1.431438 10.65,1.43 C11.551312,1.40911136 12.4142319,1.79467134 13,2.48 L13.94,3.62 C14.9981461,4.89095434 14.8281753,6.77852483 13.56,7.84 L13.52,7.84 Z" id="Shape"></path>
                </g>
            </g>
        </g>
    </g>
</svg>

<svg viewBox="0 0 16 16"><path d="M15 2.72l-1-1.14A4.41 4.41 0 0 0 7.83 1a4.34 4.34 0 0 0-1.56 3 4.37 4.37 0 0 0 1 3.22l-7 5.87a.72.72 0 0 0-.09 1 .72.72 0 0 0 .54.25.75.75 0 0 0 .45-.16l.2-.18 1.45 1.74a.7.7 0 0 0 .98.09.7.7 0 0 0 .09-1l-1.45-1.71 1.2-1 .82 1a.7.7 0 0 0 .54.26.72.72 0 0 0 .701-.653.7.7 0 0 0-.171-.517l-.81-1 3.47-2.9a4.41 4.41 0 0 0 6.2.56A4.41 4.41 0 0 0 15 2.72zm-1.48 5.12a3 3 0 0 1-4.23-.38l-.47-.57-.48-.57a3 3 0 0 1-.68-2.19 2.94 2.94 0 0 1 1.07-2 3 3 0 0 1 1.92-.7A3 3 0 0 1 13 2.48l.94 1.14a3 3 0 0 1-.38 4.22h-.04z" fill="currentColor" fill-rule="evenodd"/></svg>
